!!!COM: Music21
!!!OTL: strathspey_Strasby
!!!OMV: strathspey_Strasby
**kern
*clefG2
*k[f#c#]
*D:
*M4/4
=1
8dL
8f#J
8aL
8dJ
=
8aL
8dJ
8f#L
8aJ
2ryy
=
8ddL
8aJ
16bLL
16a
16g
16f#JJ
2ryy
=
8gL
8eJ
8eL
8f#J
2ryy
=
8dL
8f#J
8aL
8dJ
2ryy
=
8aL
8dJ
8f#L
8aJ
2ryy
=
16ff#LL
16ee
16dd
16cc#JJ
8ddL
8bJ
2ryy
!!linebreak:original
=
8aL
8f#J
8f#L
8ddJ
2ryy
=||
*M4/4
8dL
8f#J
8aL
8dJ
=
8aL
8dJ
8f#L
8aJ
2ryy
=
8ddL
8aJ
16bLL
16a
16g
16f#JJ
2ryy
=
8gL
8eJ
8eL
8f#J
2ryy
=
8dL
8f#J
8aL
8dJ
2ryy
=
8aL
8dJ
8f#L
8aJ
2ryy
!!linebreak:original
=
16ff#LL
16ee
16dd
16cc#JJ
8ddL
8bJ
2ryy
=
8aL
8f#J
8f#L
8ddJ
2ryy
=||
8ddL
8eeJ
8ff#L
8ggJ
2ryy
=
8eeL
8ggJ
8ddL
8aJ
2ryy
=
8bL
8ddJ
16bLL
16a
16g
16f#JJ
2ryy
=
8gL
8eJ
8eL
8aJ
2ryy
=
8ddL
8eeJ
8ff#L
8ggJ
2ryy
!!linebreak:original
=
8eeL
8ggJ
8ddL
8aJ
2ryy
=
16bLL
16a
16b
16cc#JJ
16ddLL
16cc#
16dd
16eeJJ
2ryy
=
8ff#L
8ddJ
8ddL
8eeJ
2ryy
=
8ff#L
8ggJ
8eeL
8ff#J
2ryy
=
8ddL
8eeJ
8bL
8eeJ
2ryy
=
8ddL
8aJ
16bLL
16a
16g
16f#JJ
2ryy
!!linebreak:original
=
8gL
8eJ
8eL
8f#J
2ryy
=
8dL
8eJ
8f#L
8aJ
2ryy
=
8bL
8cc#J
8ddL
8eeJ
2ryy
=
16ff#LL
16ee
16dd
16cc#JJ
8ddL
8bJ
2ryy
=
8aL
8f#J
8f#L
8ddJ
2ryy
=||
*-
